22x22/actions/gtk-zoom-fit.svg

<svg xmlns="http://www.w3.org/2000/svg" viewBox="0 0 22 22"><path style="fill:currentColor;fill-opacity:1;stroke:none;color:#5d656b" d="M3 3v4h1V4h3V3H3zm8 0L9 5h4l-2-2zm4 0v1h3v3h1V3h-4zM6 6v10h10V6H6zm1 1h8v8H7V7zM5 9l-2 2 2 2V9zm12 0v4l2-2-2-2zM3 15v4h4v-1H4v-3H3zm15 0v3h-3v1h4v-4h-1zm-9 2 2 2 2-2H9z"/></svg>

<svg xmlns="http://www.w3.org/2000/svg" viewBox="0 0 22 22">
  <defs id="defs3051">
    <style type="text/css" id="current-color-scheme">
      .ColorScheme-Text {
        color:#5d656b;
      }
      </style>
  </defs>
 <path 
    style="fill:currentColor;fill-opacity:1;stroke:none" 
	d="M 3 3 L 3 4 L 3 7 L 4 7 L 4 4 L 7 4 L 7 3 L 4 3 L 3 3 z M 11 3 L 9 5 L 13 5 L 11 3 z M 15 3 L 15 4 L 18 4 L 18 7 L 19 7 L 19 4 L 19 3 L 18 3 L 15 3 z M 6 6 L 6 16 L 16 16 L 16 6 L 6 6 z M 7 7 L 15 7 L 15 15 L 7 15 L 7 7 z M 5 9 L 3 11 L 5 13 L 5 9 z M 17 9 L 17 13 L 19 11 L 17 9 z M 3 15 L 3 18 L 3 19 L 7 19 L 7 18 L 4 18 L 4 15 L 3 15 z M 18 15 L 18 18 L 15 18 L 15 19 L 19 19 L 19 18 L 19 15 L 18 15 z M 9 17 L 11 19 L 13 17 L 9 17 z "
	class="ColorScheme-Text"
    />  
</svg>
